X:0049
M:2/4
L:1/8
Q:1/4=104
K:D
  FAA (B/c/)|(d/c/)(d/e/) dA/G/      | FAAf     |e>dd  :|
g|faef      | d>e         g/f/e/d/   |(f/g/a) ef|e>d B>g|
  f>aef     | d>efg                  | aAAf     |e>dd  :|

